src/assets/img/homepage/github-circle-white-transparent.svg

<svg width="20" height="20" viewBox="0 0 20 20" xmlns="http://www.w3.org/2000/svg"><title>github-circle-white-transparent</title><path d="M10 0C4.477 0 0 4.477 0 10c0 4.42 2.87 8.17 6.84 9.5.5.08.66-.23.66-.5v-1.69c-2.77.6-3.36-1.34-3.36-1.34-.46-1.16-1.11-1.47-1.11-1.47-.91-.62.07-.6.07-.6 1 .07 1.53 1.03 1.53 1.03.87 1.52 2.34 1.07 2.91.83.09-.65.35-1.09.63-1.34-2.22-.25-4.55-1.11-4.55-4.92 0-1.11.38-2 1.03-2.71-.1-.25-.45-1.29.1-2.64 0 0 .84-.27 2.75 1.02.79-.22 1.65-.33 2.5-.33.85 0 1.71.11 2.5.33 1.91-1.29 2.75-1.02 2.75-1.02.55 1.35.2 2.39.1 2.64.65.71 1.03 1.6 1.03 2.71 0 3.82-2.34 4.66-4.57 4.91.36.31.69.92.69 1.85V19c0 .27.16.59.67.5C17.14 18.16 20 14.42 20 10A10 10 0 0 0 10 0z" fill="#FFF" fill-rule="evenodd"/></svg>

<?xml version="1.0" encoding="UTF-8"?>
<svg width="20px" height="20px" viewBox="0 0 20 20" version="1.1" xmlns="http://www.w3.org/2000/svg" xmlns:xlink="http://www.w3.org/1999/xlink">
    <!-- Generator: Sketch 41.2 (35397) - http://www.bohemiancoding.com/sketch -->
    <title>github-circle-white-transparent</title>
    <desc>Created with Sketch.</desc>
    <defs></defs>
    <g id="Page-1" stroke="none" stroke-width="1" fill="none" fill-rule="evenodd">
        <g id="github-circle-white-transparent" fill="#FFFFFF">
            <path d="M10,0 C4.4771525,-2.22044605e-15 0,4.4771525 -4.4408921e-16,10 C0,14.42 2.87,18.17 6.84,19.5 C7.34,19.58 7.5,19.27 7.5,19 L7.5,17.31 C4.73,17.91 4.14,15.97 4.14,15.97 C3.68,14.81 3.03,14.5 3.03,14.5 C2.12,13.88 3.1,13.9 3.1,13.9 C4.1,13.97 4.63,14.93 4.63,14.93 C5.5,16.45 6.97,16 7.54,15.76 C7.63,15.11 7.89,14.67 8.17,14.42 C5.95,14.17 3.62,13.31 3.62,9.5 C3.62,8.39 4,7.5 4.65,6.79 C4.55,6.54 4.2,5.5 4.75,4.15 C4.75,4.15 5.59,3.88 7.5,5.17 C8.29,4.95 9.15,4.84 10,4.84 C10.85,4.84 11.71,4.95 12.5,5.17 C14.41,3.88 15.25,4.15 15.25,4.15 C15.8,5.5 15.45,6.54 15.35,6.79 C16,7.5 16.38,8.39 16.38,9.5 C16.38,13.32 14.04,14.16 11.81,14.41 C12.17,14.72 12.5,15.33 12.5,16.26 L12.5,19 C12.5,19.27 12.66,19.59 13.17,19.5 C17.14,18.16 20,14.42 20,10 C20,7.3478351 18.9464316,4.80429597 17.0710678,2.92893219 C15.195704,1.0535684 12.6521649,-2.22044605e-16 10,-4.4408921e-16 L10,0 Z" id="Shape"></path>
        </g>
    </g>
</svg>
